src/icons/solid/ai/agent-assist.svg

<svg width="24" height="24" viewBox="0 0 24 24" fill="none" xmlns="http://www.w3.org/2000/svg">
<g clip-path="url(#clip0_4757_376)">
<path d="M7.91113 13.8311C8.29417 13.7418 8.72104 13.7815 9.07129 13.96C9.94704 14.4065 10.944 14.6543 12.0059 14.6543C13.0676 14.6542 14.064 14.3965 14.9287 13.96C15.2899 13.7914 15.7056 13.7418 16.0996 13.8311C19.4931 14.6547 21.9999 17.4826 22 20.8564C22 22.0472 20.949 23 19.6572 23H4.34277C3.05104 23 2 22.0472 2 20.8564C2.00003 18.8718 2.86522 17.0852 4.27734 15.7754C4.58385 15.9838 4.95596 16.0938 5.32812 16.0938C5.74385 16.0937 6.13775 15.9645 6.45508 15.7266C6.78348 15.4884 6.99153 15.1502 7.0791 14.793C7.15579 14.4458 7.35338 14.1383 7.62695 13.9102C7.7144 13.8804 7.81278 13.8509 7.91113 13.8311Z" fill="#3C3B44"/>
<path d="M5.32812 8.98828C5.36093 8.98828 5.40475 8.98802 5.4375 9.00781C5.51408 9.01775 5.59081 9.04807 5.64551 9.09766C5.73293 9.16706 5.79841 9.25624 5.82031 9.36523C6.06114 10.4469 7.00292 11.3102 8.15234 11.5186C8.27264 11.5384 8.37068 11.5984 8.44727 11.6777C8.51287 11.757 8.55751 11.8558 8.55762 11.9648C8.55762 12.074 8.51295 12.1735 8.44727 12.2529C8.37069 12.3322 8.27261 12.3923 8.15234 12.4121C7.00292 12.6205 6.06114 13.4838 5.82031 14.5654C5.80941 14.6049 5.79812 14.6441 5.77637 14.6738C5.74356 14.7333 5.70016 14.7933 5.64551 14.833C5.55795 14.9025 5.45925 14.9326 5.33887 14.9326H5.32812C5.20779 14.9326 5.09829 14.9024 5.01074 14.833C4.92322 14.7636 4.8569 14.6745 4.83496 14.5654C4.6051 13.4839 3.66409 12.6206 2.50391 12.4121C2.39444 12.3923 2.28443 12.3323 2.21875 12.2529C2.1422 12.1736 2.09863 12.0739 2.09863 11.9648C2.09874 11.8559 2.14235 11.757 2.21875 11.6777C2.28443 11.5983 2.39444 11.5384 2.50391 11.5186C3.65317 11.31 4.6051 10.4468 4.83496 9.36523C4.85686 9.2561 4.92318 9.16711 5.01074 9.09766C5.02167 9.08779 5.04275 9.07725 5.05371 9.06738C5.13034 9.01777 5.2296 8.98828 5.32812 8.98828Z" fill="#3C3B44"/>
<path d="M11.9941 1C16.1211 1 19.4717 4.10628 19.4717 7.92676V8.50195C19.4717 10.7347 17.5226 12.5508 15.1143 12.5508H11.3818C10.6922 12.5508 10.1338 12.0247 10.1338 11.3896C10.1338 10.7546 10.6922 10.2383 11.3818 10.2383H12.6182C13.3078 10.2383 13.8662 10.7546 13.8662 11.3896H15.1143C16.8329 11.3896 18.2236 10.0996 18.2236 8.50195V7.92676C18.2236 4.74137 15.4096 2.15137 11.9941 2.15137C8.5789 2.15155 5.7983 4.72132 5.77637 7.88672C5.63423 7.857 5.48118 7.83694 5.32812 7.83691C5.05445 7.83691 4.76915 7.89654 4.52832 8.01562V7.92676C4.52832 4.10639 7.87827 1.00018 11.9941 1Z" fill="#3C3B44"/>
<path d="M12.0059 3.30176C14.7533 3.30196 16.9863 5.37659 16.9863 7.92676V8.50195C16.9863 9.45459 16.1433 10.2383 15.1143 10.2383H14.7861C14.3374 9.52402 13.5163 9.0773 12.6299 9.07715H11.3818C10.2981 9.07715 9.36767 9.72295 9.02832 10.626C8.84233 10.507 8.63402 10.4274 8.4043 10.3877C8.07595 10.3282 7.77987 10.1694 7.53906 9.95117C7.2107 9.34593 7.02446 8.66098 7.02441 7.92676C7.02441 5.37646 9.24724 3.30176 12.0059 3.30176Z" fill="#3C3B44"/>
</g>
<defs>
<clipPath id="clip0_4757_376">
<rect width="24" height="24" fill="white"/>
</clipPath>
</defs>
</svg>

<svg xmlns="http://www.w3.org/2000/svg" width="24" height="24" fill="none" viewBox="0 0 24 24"><g fill="currentColor" clip-path="url(#a)"><path d="M7.911 13.831c.383-.09.81-.05 1.16.129a6.44 6.44 0 0 0 2.935.694 6.5 6.5 0 0 0 2.923-.694 1.83 1.83 0 0 1 1.17-.129c3.394.824 5.9 3.652 5.901 7.025C22 22.047 20.949 23 19.657 23H4.343C3.05 23 2 22.047 2 20.856c0-1.984.865-3.77 2.277-5.08a1.9 1.9 0 0 0 1.051.318c.416 0 .81-.13 1.127-.367a1.63 1.63 0 0 0 .624-.934c.077-.347.274-.655.548-.883.087-.03.186-.06.284-.079M5.328 8.988c.033 0 .077 0 .11.02.076.01.153.04.208.09a.46.46 0 0 1 .174.267c.241 1.082 1.183 1.945 2.332 2.154.12.02.219.08.295.159.066.079.11.178.11.287s-.044.209-.11.288a.53.53 0 0 1-.295.16c-1.15.207-2.09 1.07-2.332 2.152a.3.3 0 0 1-.044.109.47.47 0 0 1-.437.259h-.01a.5.5 0 0 1-.318-.1.46.46 0 0 1-.176-.268c-.23-1.081-1.17-1.944-2.331-2.153a.5.5 0 0 1-.285-.16.4.4 0 0 1-.12-.287.4.4 0 0 1 .12-.287.5.5 0 0 1 .285-.16c1.15-.208 2.101-1.071 2.331-2.153a.46.46 0 0 1 .176-.267c.01-.01.032-.02.043-.03a.5.5 0 0 1 .274-.08M11.994 1c4.127 0 7.478 3.106 7.478 6.927v.575c0 2.233-1.95 4.049-4.358 4.049h-3.732c-.69 0-1.248-.526-1.248-1.161s.558-1.152 1.248-1.152h1.236c.69 0 1.248.517 1.248 1.152h1.248c1.719 0 3.11-1.29 3.11-2.888v-.575c0-3.186-2.814-5.776-6.23-5.776-3.415 0-6.196 2.57-6.218 5.736a2.2 2.2 0 0 0-.448-.05c-.274 0-.559.06-.8.179v-.09C4.528 4.107 7.878 1 11.994 1"/><path d="M12.006 3.302c2.747 0 4.98 2.075 4.98 4.625v.575c0 .953-.843 1.736-1.872 1.736h-.328c-.449-.714-1.27-1.16-2.156-1.16h-1.248c-1.084 0-2.014.645-2.354 1.548a1.7 1.7 0 0 0-.624-.238 1.76 1.76 0 0 1-.865-.437 4.2 4.2 0 0 1-.515-2.024c0-2.55 2.223-4.625 4.982-4.625"/></g><defs><clipPath id="a"><path fill="currentColor" d="M0 0h24v24H0z"/></clipPath></defs></svg>
